assets/img/icon-logo-walg.svg

<svg width="300" height="67" viewBox="0 0 300 67" xmlns="http://www.w3.org/2000/svg" xmlns:xlink="http://www.w3.org/1999/xlink"><defs><path id="a" d="M0 66.94h299.712V.478H0z"/></defs><g fill="none" fill-rule="evenodd"><mask id="b" fill="#fff"><use xlink:href="#a"/></mask><path d="M42.843 14.629c1.565-.77 1.095 1.56 1.095 1.56-.223 2.635-2.136 5.783-3.506 8.195-1.397 2.471-6.308 8.288-8.443 9.538.09-3.52 3.859-11.204 5.787-14.139.985-1.722 3.501-4.388 5.067-5.154zm-9.994 34.783c14.88 2.744 25.772-11.676 32.75-24.148 2.794-4.999 7.034-18.084 2.285-23.032-4.349-4.781-7.711 1.5-10.292 3.594l1.995 2.352c3.972 5.021.515 14.562-1.84 19.658-3.538 6.269-10.214 15.763-18.014 14.437-1.697-.393-3.097-2.037-3.686-3.764 4.198-4.154 9.176-11.457 11.971-16.316 2.34-3.955 6.403-11.592 2.657-14.742-3.109-2.156-9.333.949-12.673 3.766-2.031 1.824-3.395 3.322-4.976 5.459-4.292 5.816-8.382 15.8-7.956 23.48-2.062 1.489-4.415 2.98-7.216 2.117-2.769-.617-3.269-2.974-3.665-4.824C12.424 26.314 23.58 12.255 29.842 4.18c0 0-4.94 1.339-8.542 1.496-8.285.347-14.439-3.502-18.922 2.031C1.029 9.681.25 11.752 0 14.211c1.836-1.569 4.556-1.194 7.155-1.043 4.496.396 6.712.935 10.766-.153-3.607 5.09-9.629 15.135-10.734 21.401-.584 4.16-.532 10.717 3.019 13.656 5.892 3.928 11.745 1.186 16.97-2.425 1.55 1.796 3.465 3.368 5.673 3.765zM210.6 35.535c.428-3.027 4.849-7.535 4.889-7.582 1.473-1.479 3.386-2.68 5.244-3.301.766-.33 1.497-.26 1.953.174.171.183.405.517.405 1.071 0 .312-.076.685-.263 1.155-.476 1.174-4.034 4.624-5.047 5.502-1.129 1.071-4.208 3.217-6.576 3.6 0 0-.445.072-.72.11.038-.231.115-.729.115-.729zm-28.639.767c.238-2.022 3.273-5.949 4.892-7.591 1.472-1.482 3.388-2.688 5.24-3.297.978-.233 1.762-.043 2.17.525.158.239.246.516.246.807 0 .369-.131.758-.369 1.138-2.024 3.179-7.246 7.659-11.505 9.002 0 0-.5.163-.78.262.037-.273.106-.846.106-.846zm97.892-14.794c-.822 1.081-3.607 4.117-4.517 5.068-.043.033-.467.443-.467.443-7.534 7.565-13.294 11.95-16.63 12.659-2.278.498-3.316.624-4.382-1.426-.016-.039-.041-.11-.041-.11 0-.013-.109-.961-.109-.961 0-2.728 3.541-8.832 8.278-12.919 1.806-1.582 2.023-2.286 2.047-2.456-.677-1.058-1.089-1.558-2.007-1.942-1.317-.065-3.333 1.329-4.665 2.263-.944.644-3.62 3.104-6.453 5.695-2.366 2.168-4.805 4.41-6.169 5.531 0 0-1.904 1.551-2.308 1.895a75 75 0 0 1 .066-1.201c.05-1.407 1.527-3.752 3.644-6.905.759-1.163 2.656-4.462 2.878-5.049l.029-.054-.034-.063c-.613-.997-1.784-1.78-2.728-1.828-.096.037-.834.649-.834.649-1.596 1.296-4.992 4.357-8.273 7.33-3.015 2.726-5.86 5.287-6.565 5.804-5.531 4.104-10.33 6.787-15.059 8.448-.849.246-3.738.941-5.168-.672 0 0-.329-.36-.494-.565.208-.097.679-.295.679-.295 4.134-1.761 9.343-4.179 13.124-7.421.055-.051 5.798-4.973 5.798-9.829 0-.217-.011-.423-.028-.629-.36-1.746-1.847-2.281-3.975-2.544-6.951.037-13.198 4.312-16.441 7.959l-.572.626c-1.506 1.639-6.077 6.605-7.935 11.026 0 0-.084.199-.107.23-.01-.011-.172.059-.172.059-3.131 1.321-6.538 2.596-10.322 2.99-2.038.258-4.937.432-6.555-1.047 0 0-.399-.347-.575-.517.32-.166 7.902-4.225 7.902-4.225 6.255-3.796 10.443-9.572 10.443-12.579-.128-3.493-3.397-4.282-6.119-4.319-4.048.018-7.777 1.515-12.492 4.985-2.729 2.013-8.447 8.542-9.973 15.243 0 0-.04.225-.069.321-.128.037-.598.15-.598.15-2.995.742-8.02 1.959-8.947-.962-1.489-4.75 3.267-9.315 7.077-12.984 0-.005 2.147-2.107 2.147-2.107.298-.332.662-1.121.559-1.736a.88.88 0 0 0-.45-.675c-2.037-.895-3.993-.202-6.066.538-1.554.547-3.169 1.115-4.87.992 0 0-.339-.039-.537-.054.017-.18.047-.543.047-.543.089-1.002.675-1.602 1.196-2.135.013-.002.171-.178.171-.178.087-.105.137-.312.137-.552 0-.213-.038-.442-.134-.652-.132-.321-.336-.513-.586-.532-1.196-.153-3.254 1.034-5.132 2.922-1.794 1.834-2.928 3.808-2.928 5.168l.016.276c.014.038.01.114.01.114-.224 3.077-2.902 6.028-6.627 10.121l-1.613 1.78-.622.638c-2.235 2.276-3.644 3.985-4.084 4.928l-.126.274.303-.082c1.584-.473 6.131-2.672 14.27-12.918 0 0 .121-.145.174-.238.105.011.305.04.305.04.374.053.844-.146 1.339-.338.827-.334 1.775-.7 2.671-.105 0 0 .343.219.489.324-.155.193-1.594 2.035-1.594 2.035-2.271 2.843-4.606 5.77-4.606 9.268 0 .677.088 1.371.281 2.088.429 2.052 2.535 3.029 4.206 3.244 3.381.58 7.622-1.287 11.368-2.93l1.896-.827c1.058-.29 1.364.357 1.583.823.259.555.633 1.35 2.266 2.057 5.464 2.476 13.485 1.252 23.852-3.633 0 0 .307-.145.5-.238.079.181.215.541.215.541.743 2.01 2.146 3.25 4.441 3.916 8.922 1.186 16.277-3.918 23.393-8.854.008-.004 3.247-2.466 3.778-2.876.132.133.711.764.792.865-.112.173-3.127 4.402-3.127 4.402-1.056 1.539-2.032 2.986-2.647 4.611 0-.015-.183.678-.183.678l.081.361c.152.274.533.466 1.091.543 5.419-.745 10.636-5.164 14.08-8.079l1.034-.874c1.475-1.29 2.895-2.498 3.457-2.623 0 0 .213-.062.324-.09l.25.284c.02.02.02.05.02.08 0 .269-.399.894-.692 1.326l-.541.882c-.459.966-1.382 2.864-1.382 4.548 0 .603.125 1.202.463 1.707 1.621 2.513 3.04 2.589 4.566 2.679l.541.024c6.392-.407 12.664-5.954 18.74-11.324l4.523-3.911s3.655-3.197 4.396-3.863c.101.23.253.666.253.666a8.113 8.113 0 0 1 .558 2.918l-.111 1.268c-.071.562-1.079 4.504-2.464 5.621l-.285.154c-.013 0-.887.225-.887.225-3.34.855-7.125 1.812-8.535 5.154-.005.009-.129.758-.129.758 0 .447.172 1.089.93 1.595 2.357.606 4.804.03 6.958-.496l2.769-.588c2.263.013 4.462.278 6.587.534 2.961.348 5.744.691 8.703.39 3.822-1 6.875-5.345 7.823-8.941l.083-.291-.288.142c-4.749 2.352-10.23 2.455-14.676.272 0 0-.312-.151-.455-.229.066-.144.2-.49.2-.49.036-.064 2.745-6.684 2.745-15.26 0-.388-.006-.789-.014-1.181h.014a2.136 2.136 0 0 1-.081-.596c0-.787.398-1.437.763-2.023.374-.588.685-1.096.685-1.709 0-.088-.006-.174-.008-.276-.02-.002-.02-.029-.02-.051 0-.072.022-.167.022-.167.006-.014.006-.024.006-.038 0-.211-.333-.321-.49-.365-3.724-.935-5.833 1.82-8.262 5.022zM123.532 41.114l-.084-.058c-1.418-1.025-1.861-2.468-1.277-4.159.534-1.973 6.008-8.026 10.337-8.869 3.931-.763 5.502.569 6.26 1.201 0 .015.412.339.607.507-.164.18-2.125 2.281-2.125 2.281-2.886 4.076-10.118 10.763-13.718 9.097zm-10.237-22.813c1.646-2.021 4.349-3.803 5.159-4.184.622-.291.95.057 1.039.168.138.17.179.395.179.619 0 .27-.074.537-.17.65l.031.007c-1.443 5.023-10.549 15.685-15.788 19.423 0 0-.629.44-1.001.705.048-.392.159-1.203.159-1.203.447-3.572 7.218-12.289 10.392-16.185zM73.118 28.865c3.394-1.658 7.643-1.541 10.804.307 0 0 .362.208.546.318-.148.217-2.33 3.25-2.33 3.25-3.594 4.372-10.526 8.688-13.485 8.424v-.008c-1.382-.121-2.351-.794-2.586-1.828l-.049-.871c0-2.949 3.926-7.514 5.988-8.912-.024.018 1.112-.68 1.112-.68zm50.633-21.51h-.01c-4.805.444-9.331 3.126-14.673 8.678-2.185 2.064-12.274 14.617-13.937 24.158 0 0-.028.182-.043.264a2.388 2.388 0 0 0-.231.117c-1.461.785-5.864 2.68-8.657 1.971-.832-.207-1.456-.637-1.832-1.276a5.48 5.48 0 0 1-.634-2.571c0-2.081 1.151-3.942 2.15-5.61.004-.004.528-.877.566-.941.017.019.189-.031.189-.031 2.583-.743 6.627-5.665 7.653-8.677l.031-.08-.076-.051c-3.012-1.847-7.053-1.801-9.903-1.449-4.699.543-10.051 2.619-14.321 5.529-5.134 3.504-9.574 10.649-10.505 15.124-.502 2.553-.83 5.144.936 6.347 3.672 2.131 10.895-1.743 15.826-6.465l1.028-.976c-.037.519-.161 1.923-.161 1.923a20.38 20.38 0 0 0-.119 2c0 1.306.22 2.614 1.077 3.426 4.068 3.229 12.439-.31 17.059-3.47 0 0 .268-.186.408-.274.112.133.312.391.312.391 1.472 1.82 3.205 3.775 5.18 4.107 5.157.719 9.196-2.255 12.787-5.572 0 0 .466-.432.7-.654.074.377.347 1.66.347 1.66.265 1.327.503 2.588 1.536 3.416 2.606 2.014 8.442-.727 11.727-3.063 0 0 .758-.533 1.194-.847-.107.461-.367 1.416-.367 1.416-.554 2.168-1.593 4.248-2.599 6.259l-.906 1.84-.15.24-.262.438c-1.401 2.238-3.996 6.436-6.524 6.801l-.177.023c-.65-.232-1.064-.601-1.286-1.084l-.184-.937c0-1.133.596-2.422 1.118-3.558l.107-.227-.24.013c-1.175.188-2.226.679-3.374 1.27-2.34 1.383-4.747 4.508-4.747 7.316 0 .588.095 1.143.298 1.649.484 1.07 1.753 1.105 2.288 1.076 16.011-1.5 25-19.662 31.559-32.93l1.287-2.615c.396-.527.462-.844.462-1.029l-.012-.153a15.534 15.534 0 0 1-.245-.303c.022.018-.16-.952-.16-.952.27-1.283 3.372-3.975 3.405-4.01 0 .007.396-.297.396-.297.317-.203.518-.418.522-.584 0-.191-.209-.43-.522-.629-.634-.406-1.315-.697-3.922-1.422-4.809-1.35-13.082-.334-20.588 6.935-.788.754-2.239 2.588-3.422 4.049l-1.519 1.893c-3.655 4.267-7.428 8.695-13.661 7.457-.82-.336-1.68-1.024-2.016-1.859-.174-.489-.164-.973.043-1.409l.076-.157c3.453-2.421 7.003-5.569 10.652-9.391 6.128-6.545 13.629-17.555 12.645-20.291-.736-1.907-2.919-1.973-3.579-1.942z" fill="#bccbd4" mask="url(#b)"/></g></svg>

<svg width="300px" height="67px" viewBox="0 0 300 67" version="1.1" xmlns="http://www.w3.org/2000/svg" xmlns:xlink="http://www.w3.org/1999/xlink">
    <defs>
        <polygon id="path-1" points="0 66.94 299.712 66.94 299.712 0.478 0 0.478"></polygon>
    </defs>
    <g id="Walgreens-RGB" stroke="none" stroke-width="1" fill="none" fill-rule="evenodd">
        <mask id="mask-2" fill="white">
            <use xlink:href="#path-1"></use>
        </mask>
        <g id="Clip-2"></g>
        <path d="M42.843,14.629 C44.408,13.859 43.938,16.189 43.938,16.189 C43.715,18.824 41.802,21.972 40.432,24.384 C39.035,26.855 34.124,32.672 31.989,33.922 C32.079,30.402 35.848,22.718 37.776,19.783 C38.761,18.061 41.277,15.395 42.843,14.629 L42.843,14.629 Z M32.849,49.412 C47.729,52.156 58.621,37.736 65.599,25.264 C68.393,20.265 72.633,7.18 67.884,2.232 C63.535,-2.549 60.173,3.732 57.592,5.826 L59.587,8.178 C63.559,13.199 60.102,22.74 57.747,27.836 C54.209,34.105 47.533,43.599 39.733,42.273 C38.036,41.88 36.636,40.236 36.047,38.509 C40.245,34.355 45.223,27.052 48.018,22.193 C50.358,18.238 54.421,10.601 50.675,7.451 C47.566,5.295 41.342,8.4 38.002,11.217 C35.971,13.041 34.607,14.539 33.026,16.676 C28.734,22.492 24.644,32.476 25.07,40.156 C23.008,41.645 20.655,43.136 17.854,42.273 C15.085,41.656 14.585,39.299 14.189,37.449 C12.424,26.314 23.58,12.255 29.842,4.18 C29.842,4.18 24.902,5.519 21.3,5.676 C13.015,6.023 6.861,2.174 2.378,7.707 C1.029,9.681 0.25,11.752 0,14.211 C1.836,12.642 4.556,13.017 7.155,13.168 C11.651,13.564 13.867,14.103 17.921,13.015 C14.314,18.105 8.292,28.15 7.187,34.416 C6.603,38.576 6.655,45.133 10.206,48.072 C16.098,52 21.951,49.258 27.176,45.647 C28.726,47.443 30.641,49.015 32.849,49.412 L32.849,49.412 Z" id="Fill-1" fill="#bccbd4" mask="url(#mask-2)"></path>
        <path d="M210.6,35.535 L210.6,35.535 C211.028,32.508 215.449,28 215.489,27.953 C216.962,26.474 218.875,25.273 220.733,24.652 C221.499,24.322 222.23,24.392 222.686,24.826 C222.857,25.009 223.091,25.343 223.091,25.897 C223.091,26.209 223.015,26.582 222.828,27.052 C222.352,28.226 218.794,31.676 217.781,32.554 C216.652,33.625 213.573,35.771 211.205,36.154 C211.205,36.154 210.76,36.226 210.485,36.264 C210.523,36.033 210.6,35.535 210.6,35.535 L210.6,35.535 Z M181.961,36.302 L181.961,36.302 C182.199,34.28 185.234,30.353 186.853,28.711 C188.325,27.229 190.241,26.023 192.093,25.414 C193.071,25.181 193.855,25.371 194.263,25.939 C194.421,26.178 194.509,26.455 194.509,26.746 C194.509,27.115 194.378,27.504 194.14,27.884 C192.116,31.063 186.894,35.543 182.635,36.886 C182.635,36.886 182.135,37.049 181.855,37.148 C181.892,36.875 181.961,36.302 181.961,36.302 L181.961,36.302 Z M279.853,21.508 L279.853,21.508 C279.031,22.589 276.246,25.625 275.336,26.576 C275.293,26.609 274.869,27.019 274.869,27.019 C267.335,34.584 261.575,38.969 258.239,39.678 C255.961,40.176 254.923,40.302 253.857,38.252 C253.841,38.213 253.816,38.142 253.816,38.142 C253.816,38.129 253.707,37.181 253.707,37.181 C253.707,34.453 257.248,28.349 261.985,24.262 C263.791,22.68 264.008,21.976 264.032,21.806 C263.355,20.748 262.943,20.248 262.025,19.864 C260.708,19.799 258.692,21.193 257.36,22.127 C256.416,22.771 253.74,25.231 250.907,27.822 C248.541,29.99 246.102,32.232 244.738,33.353 C244.738,33.353 242.834,34.904 242.43,35.248 C242.446,34.847 242.496,34.047 242.496,34.047 C242.546,32.64 244.023,30.295 246.14,27.142 C246.899,25.979 248.796,22.68 249.018,22.093 L249.047,22.039 L249.013,21.976 C248.4,20.979 247.229,20.196 246.285,20.148 C246.189,20.185 245.451,20.797 245.451,20.797 C243.855,22.093 240.459,25.154 237.178,28.127 C234.163,30.853 231.318,33.414 230.613,33.931 C225.082,38.035 220.283,40.718 215.554,42.379 C214.705,42.625 211.816,43.32 210.386,41.707 C210.386,41.707 210.057,41.347 209.892,41.142 C210.1,41.045 210.571,40.847 210.571,40.847 C214.705,39.086 219.914,36.668 223.695,33.426 C223.75,33.375 229.493,28.453 229.493,23.597 C229.493,23.38 229.482,23.174 229.465,22.968 C229.105,21.222 227.618,20.687 225.49,20.424 C218.539,20.461 212.292,24.736 209.049,28.383 L208.477,29.009 C206.971,30.648 202.4,35.614 200.542,40.035 C200.542,40.035 200.458,40.234 200.435,40.265 C200.425,40.254 200.263,40.324 200.263,40.324 C197.132,41.645 193.725,42.92 189.941,43.314 C187.903,43.572 185.004,43.746 183.386,42.267 C183.386,42.267 182.987,41.92 182.811,41.75 C183.131,41.584 190.713,37.525 190.713,37.525 C196.968,33.729 201.156,27.953 201.156,24.946 C201.028,21.453 197.759,20.664 195.037,20.627 C190.989,20.645 187.26,22.142 182.545,25.612 C179.816,27.625 174.098,34.154 172.572,40.855 C172.572,40.855 172.532,41.08 172.503,41.176 C172.375,41.213 171.905,41.326 171.905,41.326 C168.91,42.068 163.885,43.285 162.958,40.364 C161.469,35.614 166.225,31.049 170.035,27.38 C170.035,27.375 172.182,25.273 172.182,25.273 C172.48,24.941 172.844,24.152 172.741,23.537 C172.703,23.242 172.556,23.021 172.291,22.862 C170.254,21.967 168.298,22.66 166.225,23.4 C164.671,23.947 163.056,24.515 161.355,24.392 C161.355,24.392 161.016,24.353 160.818,24.338 C160.835,24.158 160.865,23.795 160.865,23.795 C160.954,22.793 161.54,22.193 162.061,21.66 C162.074,21.658 162.232,21.482 162.232,21.482 C162.319,21.377 162.369,21.17 162.369,20.93 C162.369,20.717 162.331,20.488 162.235,20.278 C162.103,19.957 161.899,19.765 161.649,19.746 C160.453,19.593 158.395,20.78 156.517,22.668 C154.723,24.502 153.589,26.476 153.589,27.836 L153.605,28.112 C153.619,28.15 153.615,28.226 153.615,28.226 C153.391,31.303 150.713,34.254 146.988,38.347 L145.375,40.127 L144.753,40.765 C142.518,43.041 141.109,44.75 140.669,45.693 L140.543,45.967 L140.846,45.885 C142.43,45.412 146.977,43.213 155.116,32.967 C155.116,32.967 155.237,32.822 155.29,32.729 C155.395,32.74 155.595,32.769 155.595,32.769 C155.969,32.822 156.439,32.623 156.934,32.431 C157.761,32.097 158.709,31.731 159.605,32.326 C159.605,32.326 159.948,32.545 160.094,32.65 C159.939,32.843 158.5,34.685 158.5,34.685 C156.229,37.528 153.894,40.455 153.894,43.953 C153.894,44.63 153.982,45.324 154.175,46.041 C154.604,48.093 156.71,49.07 158.381,49.285 C161.762,49.865 166.003,47.998 169.749,46.355 L171.645,45.528 C172.703,45.238 173.009,45.885 173.228,46.351 C173.487,46.906 173.861,47.701 175.494,48.408 C180.958,50.884 188.979,49.66 199.346,44.775 C199.346,44.775 199.653,44.63 199.846,44.537 C199.925,44.718 200.061,45.078 200.061,45.078 C200.804,47.088 202.207,48.328 204.502,48.994 C213.424,50.18 220.779,45.076 227.895,40.14 C227.903,40.136 231.142,37.674 231.673,37.264 C231.805,37.397 232.384,38.028 232.465,38.129 C232.353,38.302 229.338,42.531 229.338,42.531 C228.282,44.07 227.306,45.517 226.691,47.142 C226.691,47.127 226.508,47.82 226.508,47.82 L226.589,48.181 C226.741,48.455 227.122,48.647 227.68,48.724 C233.099,47.979 238.316,43.56 241.76,40.645 L242.794,39.771 C244.269,38.481 245.689,37.273 246.251,37.148 C246.251,37.148 246.464,37.086 246.575,37.058 C246.654,37.148 246.825,37.342 246.825,37.342 C246.845,37.362 246.845,37.392 246.845,37.422 C246.845,37.691 246.446,38.316 246.153,38.748 L245.612,39.63 C245.153,40.596 244.23,42.494 244.23,44.178 C244.23,44.781 244.355,45.38 244.693,45.885 C246.314,48.398 247.733,48.474 249.259,48.564 L249.8,48.588 C256.192,48.181 262.464,42.634 268.54,37.264 L273.063,33.353 C273.063,33.353 276.718,30.156 277.459,29.49 C277.56,29.72 277.712,30.156 277.712,30.156 C278.169,31.322 278.27,32.389 278.27,33.074 L278.159,34.342 C278.088,34.904 277.08,38.846 275.695,39.963 L275.41,40.117 C275.397,40.117 274.523,40.342 274.523,40.342 C271.183,41.197 267.398,42.154 265.988,45.496 C265.983,45.505 265.859,46.254 265.859,46.254 C265.859,46.701 266.031,47.343 266.789,47.849 C269.146,48.455 271.593,47.879 273.747,47.353 L276.516,46.765 C278.779,46.778 280.978,47.043 283.103,47.299 C286.064,47.647 288.847,47.99 291.806,47.689 C295.628,46.689 298.681,42.344 299.629,38.748 L299.712,38.457 L299.424,38.599 C294.675,40.951 289.194,41.054 284.748,38.871 C284.748,38.871 284.436,38.72 284.293,38.642 C284.359,38.498 284.493,38.152 284.493,38.152 C284.529,38.088 287.238,31.468 287.238,22.892 C287.238,22.504 287.232,22.103 287.224,21.711 L287.238,21.711 C287.179,21.505 287.157,21.308 287.157,21.115 C287.157,20.328 287.555,19.678 287.92,19.092 C288.294,18.504 288.605,17.996 288.605,17.383 C288.605,17.295 288.599,17.209 288.597,17.107 C288.577,17.105 288.577,17.078 288.577,17.056 C288.577,16.984 288.599,16.889 288.599,16.889 C288.605,16.875 288.605,16.865 288.605,16.851 C288.605,16.64 288.272,16.53 288.115,16.486 C284.391,15.551 282.282,18.306 279.853,21.508 L279.853,21.508 Z" id="Fill-3" fill="#bccbd4" mask="url(#mask-2)"></path>
        <path d="M123.532,41.114 L123.448,41.056 C122.03,40.031 121.587,38.588 122.171,36.897 C122.705,34.924 128.179,28.871 132.508,28.028 C136.439,27.265 138.01,28.597 138.768,29.229 C138.768,29.244 139.18,29.568 139.375,29.736 C139.211,29.916 137.25,32.017 137.25,32.017 C134.364,36.093 127.132,42.78 123.532,41.114 L123.532,41.114 Z M113.295,18.301 C114.941,16.28 117.644,14.498 118.454,14.117 C119.076,13.826 119.404,14.174 119.493,14.285 C119.631,14.455 119.672,14.68 119.672,14.904 C119.672,15.174 119.598,15.441 119.502,15.554 L119.533,15.561 C118.09,20.584 108.984,31.246 103.745,34.984 C103.745,34.984 103.116,35.424 102.744,35.689 C102.792,35.297 102.903,34.486 102.903,34.486 C103.35,30.914 110.121,22.197 113.295,18.301 L113.295,18.301 Z M73.118,28.865 C76.512,27.207 80.761,27.324 83.922,29.172 C83.922,29.172 84.284,29.38 84.468,29.49 C84.32,29.707 82.138,32.74 82.138,32.74 C78.544,37.112 71.612,41.428 68.653,41.164 L68.653,41.156 C67.271,41.035 66.302,40.362 66.067,39.328 L66.018,38.457 C66.018,35.508 69.944,30.943 72.006,29.545 C71.982,29.563 73.118,28.865 73.118,28.865 L73.118,28.865 Z M123.751,7.355 L123.741,7.355 C118.936,7.799 114.41,10.481 109.068,16.033 C106.883,18.097 96.794,30.65 95.131,40.191 C95.131,40.191 95.103,40.373 95.088,40.455 C95.015,40.482 94.857,40.572 94.857,40.572 C93.396,41.357 88.993,43.252 86.2,42.543 C85.368,42.336 84.744,41.906 84.368,41.267 C83.936,40.433 83.734,39.586 83.734,38.696 C83.734,36.615 84.885,34.754 85.884,33.086 C85.888,33.082 86.412,32.209 86.45,32.145 C86.467,32.164 86.639,32.114 86.639,32.114 C89.222,31.371 93.266,26.449 94.292,23.437 L94.323,23.357 L94.247,23.306 C91.235,21.459 87.194,21.505 84.344,21.857 C79.645,22.4 74.293,24.476 70.023,27.386 C64.889,30.89 60.449,38.035 59.518,42.51 C59.016,45.063 58.688,47.654 60.454,48.857 C64.126,50.988 71.349,47.114 76.28,42.392 C76.28,42.392 76.924,41.781 77.308,41.416 C77.271,41.935 77.147,43.339 77.147,43.339 C77.086,43.951 77.028,44.647 77.028,45.339 C77.028,46.645 77.248,47.953 78.105,48.765 C82.173,51.994 90.544,48.455 95.164,45.295 C95.164,45.295 95.432,45.109 95.572,45.021 C95.684,45.154 95.884,45.412 95.884,45.412 C97.356,47.232 99.089,49.187 101.064,49.519 C106.221,50.238 110.26,47.264 113.851,43.947 C113.851,43.947 114.317,43.515 114.551,43.293 C114.625,43.67 114.898,44.953 114.898,44.953 C115.163,46.28 115.401,47.541 116.434,48.369 C119.04,50.383 124.876,47.642 128.161,45.306 C128.161,45.306 128.919,44.773 129.355,44.459 C129.248,44.92 128.988,45.875 128.988,45.875 C128.434,48.043 127.395,50.123 126.389,52.134 L125.483,53.974 L125.333,54.214 L125.071,54.652 C123.67,56.89 121.075,61.088 118.547,61.453 L118.37,61.476 C117.72,61.244 117.306,60.875 117.084,60.392 L116.9,59.455 C116.9,58.322 117.496,57.033 118.018,55.897 L118.125,55.67 L117.885,55.683 C116.71,55.871 115.659,56.362 114.511,56.953 C112.171,58.336 109.764,61.461 109.764,64.269 C109.764,64.857 109.859,65.412 110.062,65.918 C110.546,66.988 111.815,67.023 112.35,66.994 C128.361,65.494 137.35,47.332 143.909,34.064 L145.196,31.449 C145.592,30.922 145.658,30.605 145.658,30.42 L145.646,30.267 C145.62,30.24 145.401,29.964 145.401,29.964 C145.423,29.982 145.241,29.012 145.241,29.012 C145.511,27.729 148.613,25.037 148.646,25.002 C148.646,25.009 149.042,24.705 149.042,24.705 C149.359,24.502 149.56,24.287 149.564,24.121 C149.564,23.93 149.355,23.691 149.042,23.492 C148.408,23.086 147.727,22.795 145.12,22.07 C140.311,20.72 132.038,21.736 124.532,29.005 C123.744,29.759 122.293,31.593 121.11,33.054 L119.591,34.947 C115.936,39.214 112.163,43.642 105.93,42.404 C105.11,42.068 104.25,41.38 103.914,40.545 C103.74,40.056 103.75,39.572 103.957,39.136 L104.033,38.979 C107.486,36.558 111.036,33.41 114.685,29.588 C120.813,23.043 128.314,12.033 127.33,9.297 C126.594,7.39 124.411,7.324 123.751,7.355 L123.751,7.355 Z" id="Fill-4" fill="#bccbd4" mask="url(#mask-2)"></path>
    </g>
</svg>
